!!!COM: Prokofiev, Sergey
!!!CDT: 1891/04/23/-1953/03/05/
!!!OTL@@RU: Mimoletnosti 
!!!OTL@EN:  Visions fugitives
!!!ONB: set of 20 pieces
!!!ODT: 1915///-1917///
!!!OPS: Op. 22
!!!ONM: No. 1
!!!OMD: Lentamente
**kern	**kern	**dynam
*staff2	*staff1	*staff1/2
*clefG2	*clefG2	*clefG2
*k[]	*k[]	*k[]
*M3/4	*M3/4	*M3/4
*MM60	*MM60	*MM60
=1-	=1-	=1-
4r	4r	.
4e/ 4g/ 4dd/	(4bb\	pp
4d/ 4f#/ 4cc/	4ee\	.
=2	=2	=2
2c/ 2e/ 2b-/	2ccc\	.
4Bn/ 4d/ 4a/	4ddd\	.
=3	=3	=3
2A/ 2c/ 2g/	4eee\	.
.	4ee\	.
4G/ 4B/ 4f/	4aa\	.
=4	=4	=4
2F#/ 2A/ 2e/	4.gg\	.
.	8dd\	.
4B/ 4d/ 4a/	4ee\	.
*clefF4	*	*
=5	=5	=5
2D\ 2F\ 2c\	4aa\	.
.	4ee\	.
4E\ 4G\ 4d\	4dd\	.
=6	=6	=6
2.F\ 2.A\ 2.e\	2a/	.
.	4g/	.
=7	=7	=7
2G\ 2B\ 2d\	4f/	.
.	4e/	.
4A\ 4c\	4a/	.
=8	=8	=8
2.B\	2.d/)	.
*	*clefF4	*clefF4
=9	=9	=9
[2.BBB/ [2.DD/ [2.FF/	[2.BB/ ([2.D/	ppp
=10	=10	=10
4BBB/] 4DD/] 4FF/]	4BB/] 4D/]	.
4DD/ 4FF/ 4AA/	4D\ 4F\	.
4EE/ 4GG/ 4BB/	4E\ 4G\	.
=11	=11	=11
*^	*^	*
&(2FF/&) 2AA/ 2C/	2r	2r	2F\ 2A\)	.
*	*	*v	*v	*
*	*	*clefG2	*clefG2
*	*	*^	*
[4c/ [4e/	[4F\	[4cc/ [4ee/	4a\	p
=12	=12	=12	=12	=12
4c/] 4e/]	2.F\]	4cc/] 4ee/]	2a-\	>
2B/ 2d/	.	2b/ 2dd/	.	.
.	.	.	4g\	.
=13	=13	=13	=13	=13
2.A/ 2.c/	2.F\	2.a/ 2.cc/	2.f\	.
*v	*v	*	*	*
=14	=14	=14	=14
4r	4r	2.r	.
*clefG2	*	*	*
4e/ 4g/ 4dd/	(4bb/	.	pp
4d/ 4f#/ 4cc/	4ee/	.	.
=15	=15	=15	=15
2c/ 2e/ 2b-/	2ccc/	8ccc\L	.
.	.	8bb\	.
.	.	8bb-\	.
.	.	8aa\	.
4Bn/ 4d/ 4an/	4ddd/	8aa-\	.
.	.	8gg\J	.
=16	=16	=16	=16
2A/ 2c/ 2g/	4eee/	8ff#\L	.
.	.	8ffn\	.
.	4ee/	8ee\	.
.	.	8ee-\	.
4G/ 4B/ 4f/	4aa/	8dd\	.
.	.	8dd-\J	.
=17	=17	=17	=17
2F#/ 2A/ 2e/	4.gg/	8cc\L	.
.	.	8b\	.
.	.	8cc\	.
.	8dd/	8b\	.
4B/ 4d/	4ee/	8a\	.
.	.	8g\J	.
*clefF4	*	*	*
=18	=18	=18	=18
2D\ 2F\ 2c\	4aa/	8f\L	.
.	.	8a\	.
.	4ee/	8g\	.
.	.	8f\	.
4E\ 4G\	4dd/	8e\	.
.	.	8d\J	.
=19	=19	=19	=19
*^	*	*	*
8B/L	2.F\	2a/	2.e\	.
8A/	.	.	.	.
8G/	.	.	.	.
8F/	.	.	.	.
8E/	.	4g/	.	.
8D/J	.	.	.	.
=20	=20	=20	=20	=20
8C#/L	2DD#\	4f/	2G#\ 2c#\	.
8Cn/	.	.	.	.
8BB/	.	4e/	.	.
8BB-/	.	.	.	.
8AA/	4DD#\	4a/	4Gn\ 4c#\	.
8AA-/J	.	.	.	.
=21	=21	=21	=21	=21
8GG/L	2DDn\	2.d/)	2.E\ 2.A\	.
8FF/	.	.	.	.
8EE/	.	.	.	.
8DD/	.	.	.	.
8CC/	4r	.	.	.
8BBB/J	.	.	.	.
*v	*v	*	*	*
*	*v	*v	*
*	*clefF4	*clefF4
=22	=22	=22
[2.BBB-/ [2.DD-/ [2.FF/	[2.BB-/ ([2.D-/	ppp
=23	=23	=23
4BBB-/] 4DD-/] 4FF/]	4BB-/] 4D-/]	.
4DD/ 4FF/ 4AA/	4D-\ 4F\	.
4EE-/ 4GG/ 4BB-/	4E-\ 4G\	.
=24	=24	=24
*^	*^	*
&(2FF/&) 2AAn/ 2C/	2r	2r	2F\ 2A\)	.
*	*	*v	*v	*
*	*	*clefG2	*clefG2
*	*	*^	*
[4f/ [4a/	[4B\	[4ff^/ ([4aa^/	4dd\	mp
=25	=25	=25	=25	=25
4f/] 4a/]	2.B\]	4ff/] 4aa/]	2dd-\	>
2e/ 2g/	.	[2ee/ [2gg/	.	.
.	.	.	4cc\	.
*v	*v	*	*	*
=26	=26	=26	=26
[2.E\ [2.B\ [2.e\	2.ee/] 2.gg/])	2.g\ 2.b\	.
*	*v	*v	*
=27	=27	=27
2.E\] 2.B\] 2.e\]	2.bb\ 2.ggg\ 2.bbb\	pp
==	==	==
*-	*-	*-
!!!ENC: Craig Stuart Sapp
!!!END: 2004/12/09/
